X:384
T:Kelsterne Gardens
C:John Young, c.1727
N:Originally in C minor.
S:Colin Hume's website,  colinhume.com  - chords can also be printed below the stave.
Q:1/2=112
M:2/2
L:1/8
K:Dm
P:A
|: "Dm"D2d2 dcBA | "Gm"B2G2 E2G2 | "C"C2c2 cBAG | "F"BAGF "A7"AGFE |\
"Dm"D2d2 dcBA | "Gm"B2G2 E2G2 | "Dm/A"A2F2 "A7"A,2^C2 | "Dm"D8 :|
P:B
|: "Dm"d2a2 a2ga | "Gm"bagf "C"e2c'2 | "Bb"d2 b4 d2 | "A"^c2 a4 ga | "Gm"bagf "A7"ed^ce | "A7"A2^c2 "Dm"d4 :|

